X: 9560
T: Dave Normaway MacDonald's Wedding
R: reel
M: 4/4
K: Amixolydian
|:e~A3 eAce|d~G3 dGBd|e~A3 eAce|dgfa gedg|
e~A3 eAce|d~G3 dGBd|e2 dB AdBA|GEDG EA A2:|
|:ae ~e2 a=c'ba|gdde gabg|ae ~e2 a=c'ba|dega ba a2|
ae ~e2 gd ~d2|eA ~A2 dGBd|e2 dB AdBA|GEDG EA A2:|

